packages/ui-icons/src/Basic/32/Mobile-cash-desk_32.svg

<svg xmlns="http://www.w3.org/2000/svg" viewBox="0 0 40 40"><path d="M22 8h-4v6h-2v2h2v2h-2v2h2v2h2v-2h4v-2h-4v-2h2a4 4 0 0 0 0-8Zm0 6h-2v-4h2a2 2 0 0 1 0 4ZM33 4H14a4.75 4.75 0 0 0-4 4.68V20H6v16h28V20h-4V10h7V8.34A4.36 4.36 0 0 0 33 4ZM12 8.71A2.71 2.71 0 0 1 14.71 6h14.15A4.66 4.66 0 0 0 28 8.69V26H12ZM32 22v12H8V22h2v6h20v-6ZM30.09 8a2.68 2.68 0 0 1 2.59-2A2.32 2.32 0 0 1 35 8Z"/></svg>

<svg id="Ready" xmlns="http://www.w3.org/2000/svg" viewBox="0 0 40 40"><title>Megaicons_work_32_1.8_cp</title><path d="M22,8H18v6H16v2h2v2H16v2h2v2h2V20h4V18H20V16h2a4,4,0,0,0,0-8Zm0,6H20V10h2a2,2,0,0,1,0,4ZM33,4,14,4a4.75,4.75,0,0,0-4,4.68h0V20H6V36H34V20H30V10h7V8.34A4.36,4.36,0,0,0,33,4ZM12,8.71A2.71,2.71,0,0,1,14.71,6H28.86A4.66,4.66,0,0,0,28,8.69V26H12ZM32,22V34H8V22h2v6H30V22ZM30.09,8a2.68,2.68,0,0,1,2.59-2A2.32,2.32,0,0,1,35,8Z"/></svg>
